Dominus_Dark_Funeral/scalable/apps/vmware-server.svg

<?xml version="1.0" encoding="UTF-8" standalone="no"?><svg xmlns:dc="http://purl.org/dc/elements/1.1/" xmlns:cc="http://creativecommons.org/ns#" xmlns:rdf="http://www.w3.org/1999/02/22-rdf-syntax-ns#" xmlns="http://www.w3.org/2000/svg" xmlns:xlink="http://www.w3.org/1999/xlink" width="48" height="48" viewBox="0 0 12.7 12.7"><metadata><rdf:RDF><cc:Work><dc:format>image/svg+xml</dc:format><dc:type rdf:resource="http://purl.org/dc/dcmitype/StillImage"/><dc:title/></cc:Work></rdf:RDF></metadata><defs><linearGradient id="b"><stop offset="0" stop-color="#2a7fff"/><stop offset="1" stop-color="#afe9dd"/></linearGradient><linearGradient id="a"><stop offset="0"/><stop offset="1" stop-color="#010000" stop-opacity="0"/></linearGradient><linearGradient id="c"><stop offset="0"/><stop offset="1" stop-color="#000004" stop-opacity="0"/></linearGradient><linearGradient xlink:href="#b" id="d" x1="11.58" y1="1.96" x2="1.25" y2="9.35" gradientUnits="userSpaceOnUse"/><linearGradient xlink:href="#c" id="e" gradientUnits="userSpaceOnUse" x1="1.1" y1="1.12" x2="14.49" y2="9.63"/></defs><path fill="url(#d)" d="M10.04.97A6.75 6.75 0 0 0 6.35.1C4.81.1 3.57.4 2.66.97A3.67 3.67 0 0 0 1 4.22c0 1.91 1.54 4.47 2.01 5.2.54.85 1.13 1.61 1.65 2.16.68.7 1.21 1.03 1.69 1.03s1.01-.33 1.69-1.03a15.2 15.2 0 0 0 1.65-2.15c.47-.74 2-3.3 2-5.21 0-1.42-.57-2.54-1.65-3.25z"/><path opacity=".5" d="M1.04 3.9c0 .1-.04.2-.04.32 0 1.91 1.54 4.47 2.01 5.2.54.85 1.13 1.61 1.65 2.16.68.7 1.21 1.03 1.69 1.03s1.01-.33 1.69-1.03a15.2 15.2 0 0 0 1.65-2.15c.47-.74 2-3.3 2-5.21 0-.11-.02-.21-.03-.32a5.5 5.5 0 0 1-.21 1.3c-.15.53-.36 1.05-.58 1.53-.44.97-.95 1.8-1.18 2.17a15.2 15.2 0 0 1-1.65 2.15 4.9 4.9 0 0 1-.92.78c-.28.17-.53.25-.77.25s-.5-.08-.77-.25a4.76 4.76 0 0 1-.92-.78A14.41 14.41 0 0 1 3.01 8.9a19.2 19.2 0 0 1-1.18-2.17c-.22-.48-.43-1-.58-1.52a5.66 5.66 0 0 1-.21-1.31z"/><path d="M7.08 12.37l.04-.01c.28-.17.58-.43.92-.78a15.2 15.2 0 0 0 .97-1.17 15.2 15.2 0 0 0 .68-.98c.23-.37.73-1.2 1.18-2.17.22-.48.42-1 .57-1.52a4.63 4.63 0 0 0 .14-2.52c0-.07-.04-.12-.06-.18L9.8 1.32l-.52.18-2.35.08V3L5.27 1.32l-.49.28-1.5-.02-.36 2.09 1.68 1.68-1.49.05-.18 2.8z" opacity=".55" fill="url(#e)" stroke-width=".26"/><path d="M2.91 1.32v2.35h.63V2.39l1.25 1.25v.81h.62v-.63h.63V3.2h-.81L3.98 1.95h1.28v-.63H2.91zm3.79 0v3.1h3.1v-3.1H6.7zm.53.53h2.04v2.03H7.23V1.85zm.07 3.23v.62h-.63v.63h.81l1.25 1.25H7.44v.62H9.8V5.86h-.63v1.27L7.91 5.9v-.81l-.61-.01zm-4.38.03v3.1h3.1V5.1h-3.1zm.53.53h2.03v2.03H3.45V5.64z" stroke-width="3.78" fill="#fed844"/></svg>

<?xml version="1.0" encoding="UTF-8" standalone="no"?>
<svg
   xmlns:dc="http://purl.org/dc/elements/1.1/"
   xmlns:cc="http://creativecommons.org/ns#"
   xmlns:rdf="http://www.w3.org/1999/02/22-rdf-syntax-ns#"
   xmlns:svg="http://www.w3.org/2000/svg"
   xmlns="http://www.w3.org/2000/svg"
   xmlns:xlink="http://www.w3.org/1999/xlink"
   xmlns:sodipodi="http://sodipodi.sourceforge.net/DTD/sodipodi-0.dtd"
   xmlns:inkscape="http://www.inkscape.org/namespaces/inkscape"
   width="48"
   height="48"
   viewBox="0 0 12.7 12.7"
   version="1.1"
   id="svg31"
   sodipodi:docname="vmware-server.svg"
   inkscape:version="0.92.4 (5da689c313, 2019-01-14)">
  <sodipodi:namedview
     pagecolor="#ffffff"
     bordercolor="#666666"
     borderopacity="1"
     objecttolerance="10"
     gridtolerance="10"
     guidetolerance="10"
     inkscape:pageopacity="0"
     inkscape:pageshadow="2"
     inkscape:window-width="1112"
     inkscape:window-height="480"
     id="namedview33"
     showgrid="false"
     inkscape:zoom="4.9166667"
     inkscape:cx="2.1355932"
     inkscape:cy="24"
     inkscape:window-x="0"
     inkscape:window-y="25"
     inkscape:window-maximized="0"
     inkscape:current-layer="svg31" />
  <metadata
     id="metadata2">
    <rdf:RDF>
      <cc:Work>
        <dc:format>image/svg+xml</dc:format>
        <dc:type
           rdf:resource="http://purl.org/dc/dcmitype/StillImage" />
        <dc:title></dc:title>
      </cc:Work>
    </rdf:RDF>
  </metadata>
  <defs
     id="defs21">
    <linearGradient
       id="b">
      <stop
         offset="0"
         stop-color="#2a7fff"
         id="stop4" />
      <stop
         offset="1"
         stop-color="#afe9dd"
         id="stop6" />
    </linearGradient>
    <linearGradient
       id="a">
      <stop
         offset="0"
         id="stop9" />
      <stop
         offset="1"
         stop-color="#010000"
         stop-opacity="0"
         id="stop11" />
    </linearGradient>
    <linearGradient
       id="c">
      <stop
         offset="0"
         id="stop14" />
      <stop
         offset="1"
         stop-color="#000004"
         stop-opacity="0"
         id="stop16" />
    </linearGradient>
    <linearGradient
       xlink:href="#b"
       id="d"
       x1="11.58"
       y1="1.96"
       x2="1.25"
       y2="9.35"
       gradientUnits="userSpaceOnUse" />
    <linearGradient
       xlink:href="#c"
       id="e"
       gradientUnits="userSpaceOnUse"
       x1="1.1"
       y1="1.12"
       x2="14.49"
       y2="9.63" />
  </defs>
  <path
     d="M 10.04,0.97 A 6.75,6.75 0 0 0 6.35,0.1 C 4.81,0.1 3.57,0.4 2.66,0.97 A 3.67,3.67 0 0 0 1,4.22 c 0,1.91 1.54,4.47 2.01,5.2 0.54,0.85 1.13,1.61 1.65,2.16 0.68,0.7 1.21,1.03 1.69,1.03 0.48,0 1.01,-0.33 1.69,-1.03 A 15.2,15.2 0 0 0 9.69,9.43 c 0.47,-0.74 2,-3.3 2,-5.21 0,-1.42 -0.57,-2.54 -1.65,-3.25 z"
     id="path23"
     style="fill:url(#d)"
     inkscape:connector-curvature="0" />
  <path
     d="M 1.04,3.9 C 1.04,4 1,4.1 1,4.22 c 0,1.91 1.54,4.47 2.01,5.2 0.54,0.85 1.13,1.61 1.65,2.16 0.68,0.7 1.21,1.03 1.69,1.03 0.48,0 1.01,-0.33 1.69,-1.03 A 15.2,15.2 0 0 0 9.69,9.43 c 0.47,-0.74 2,-3.3 2,-5.21 0,-0.11 -0.02,-0.21 -0.03,-0.32 A 5.5,5.5 0 0 1 11.45,5.2 C 11.3,5.73 11.09,6.25 10.87,6.73 10.43,7.7 9.92,8.53 9.69,8.9 A 15.2,15.2 0 0 1 8.04,11.05 4.9,4.9 0 0 1 7.12,11.83 C 6.84,12 6.59,12.08 6.35,12.08 6.11,12.08 5.85,12 5.58,11.83 A 4.76,4.76 0 0 1 4.66,11.05 14.41,14.41 0 0 1 3.01,8.9 19.2,19.2 0 0 1 1.83,6.73 C 1.61,6.25 1.4,5.73 1.25,5.21 A 5.66,5.66 0 0 1 1.04,3.9 Z"
     id="path25"
     inkscape:connector-curvature="0"
     style="opacity:0.5" />
  <path
     d="M 7.08,12.37 7.12,12.36 C 7.4,12.19 7.7,11.93 8.04,11.58 A 15.2,15.2 0 0 0 9.01,10.41 15.2,15.2 0 0 0 9.69,9.43 c 0.23,-0.37 0.73,-1.2 1.18,-2.17 0.22,-0.48 0.42,-1 0.57,-1.52 A 4.63,4.63 0 0 0 11.58,3.22 C 11.58,3.15 11.54,3.1 11.52,3.04 L 9.8,1.32 9.28,1.5 6.93,1.58 V 3 L 5.27,1.32 4.78,1.6 3.28,1.58 2.92,3.67 4.6,5.35 3.11,5.4 2.93,8.2 Z"
     id="path27"
     style="opacity:0.55;fill:url(#e);stroke-width:0.25999999"
     inkscape:connector-curvature="0" />
  <path
     d="M 2.91,1.32 V 3.67 H 3.54 V 2.39 L 4.79,3.64 V 4.45 H 5.41 V 3.82 H 6.04 V 3.2 H 5.23 L 3.98,1.95 H 5.26 V 1.32 Z m 3.79,0 v 3.1 H 9.8 V 1.32 Z M 7.23,1.85 H 9.27 V 3.88 H 7.23 Z M 7.3,5.08 V 5.7 H 6.67 V 6.33 H 7.48 L 8.73,7.58 H 7.44 V 8.2 H 9.8 V 5.86 H 9.17 V 7.13 L 7.91,5.9 V 5.09 Z M 2.92,5.11 v 3.1 h 3.1 V 5.1 H 2.92 Z M 3.45,5.64 H 5.48 V 7.67 H 3.45 Z"
     id="path29"
     inkscape:connector-curvature="0"
     style="fill:#fed844;stroke-width:3.77999997" />
</svg>
